themoviedatabase.svg

<?xml version="1.0" encoding="UTF-8"?>
<svg viewBox="0 0 8 7" version="1.1" xmlns="http://www.w3.org/2000/svg" xmlns:xlink="http://www.w3.org/1999/xlink">
    <title>Combined Shape</title>
    <defs>
        <linearGradient x1="0%" y1="49.9999494%" x2="99.9700802%" y2="49.9999494%" id="linearGradient-1">
            <stop stop-color="#90CEA1" offset="0%"></stop>
            <stop stop-color="#3CBEC9" offset="56%"></stop>
            <stop stop-color="#00B3E5" offset="100%"></stop>
        </linearGradient>
    </defs>
    <g id="Page-1" stroke="none" stroke-width="1" fill="none" fill-rule="evenodd">
        <path d="M5.40259499,4.58711607 C5.52019488,4.58731607 5.6373281,4.60184939 5.75139466,4.63034936 C5.8561279,4.65394934 5.95502781,4.69831597 6.04226106,4.76088258 C6.12556098,4.82378252 6.19256092,4.90574911 6.23762755,4.99988235 C6.2889275,5.11158225 6.31376081,5.23358214 6.31026081,5.35644869 C6.31122748,5.46994858 6.28579417,5.58211515 6.23589421,5.68408172 C6.19089426,5.7760483 6.12646098,5.85714823 6.04702772,5.9217815 C5.96536113,5.98691477 5.87229455,6.03628139 5.77256131,6.06744803 C5.66692808,6.100948 5.55666151,6.11771465 5.44582828,6.11716188 L4.89866212,6.11716188 L4.89649546,4.58711607 Z M7.3687265,4.5862494 C7.43565977,4.5863494 7.50252637,4.59098273 7.56882631,4.60008272 C7.63165959,4.60844938 7.6926262,4.62744937 7.74905948,4.65628267 C7.80185943,4.68361598 7.84655939,4.72428261 7.87872602,4.77428256 C7.91459266,4.83494917 7.93185931,4.90484911 7.92842598,4.97524904 C7.93162597,5.0536823 7.90595933,5.13058223 7.85625938,5.19134884 C7.80549276,5.24958212 7.73902615,5.29188208 7.66479289,5.31324873 C7.71269284,5.32418205 7.75915947,5.33878204 7.80222609,5.36078202 C7.84215939,5.380682 7.87805936,5.40778198 7.908126,5.44074861 C7.93799264,5.47364858 7.96105928,5.51211521 7.9759926,5.55398184 C7.99205925,5.5982818 8.00012591,5.64511509 7.99975924,5.69228171 C8.00232591,5.76328165 7.98432593,5.83354825 7.94789263,5.89454819 C7.91385932,5.94754814 7.8679927,5.9919481 7.81389275,6.02421474 C7.75692614,6.05841471 7.69449286,6.08254802 7.62935959,6.09551467 C7.56212632,6.10974799 7.49362638,6.11698132 7.42492644,6.11714798 L6.79819369,6.11714798 L6.79819369,4.5862494 Z M3.65779661,4.58711607 C3.86056308,4.58711607 4.05499624,4.66774933 4.19826277,4.81128253 C4.34152931,4.9547824 4.42182923,5.14934888 4.42149693,5.35211536 L4.41452498,5.45574972 C4.36395353,5.82852927 4.04441569,6.11584799 3.65779661,6.11584799 L0.895969169,6.11584799 C0.474182893,6.11584799 0.132254775,5.77391497 0.132254775,5.35211536 L0.141585635,5.23178241 C0.166553685,5.07356495 0.240874043,4.92608242 0.355483004,4.81128253 C0.498742871,4.66774933 0.69319269,4.58711607 0.895969169,4.58711607 Z M7.39032648,5.48394857 L7.13532671,5.48394857 L7.13316005,5.83058158 L7.43572643,5.83058158 C7.46229308,5.83044825 7.48882639,5.82754825 7.51479303,5.82194826 C7.540593,5.81654826 7.56505965,5.80628161 7.58699296,5.79168162 C7.60872627,5.77721497 7.62689292,5.75801498 7.64015958,5.735515 C7.65452623,5.70981503 7.66155956,5.68064839 7.66045956,5.65121508 C7.66172622,5.62018178 7.65225957,5.58964847 7.63365958,5.56478183 C7.6154596,5.54251518 7.59199296,5.5251152 7.56539298,5.51421521 C7.53775967,5.50248189 7.50869303,5.49448189 7.47892639,5.49044857 C7.44959309,5.4862819 7.41999312,5.48411524 7.39032648,5.48394857 Z M5.43502829,4.89831136 L5.23619514,4.89831136 L5.23406181,5.80594827 L5.41342831,5.80594827 C5.48612824,5.80648161 5.55866151,5.79851495 5.62952811,5.78218163 C5.69192805,5.76788164 5.75076133,5.74094833 5.80239462,5.7030817 C5.85229457,5.66531507 5.8919612,5.61571512 5.91779451,5.55871517 C5.94812781,5.4895819 5.96286113,5.41464864 5.9610278,5.33918204 C5.96229447,5.27154877 5.94749448,5.20458216 5.91779451,5.14381555 C5.89119453,5.08984894 5.8524279,5.04281565 5.80456128,5.00634901 C5.75419466,4.96911572 5.69732805,4.94154907 5.63686144,4.92511576 C5.57109483,4.90708244 5.50319489,4.89808245 5.43502829,4.89831136 Z M7.36439317,4.87238247 L7.13532671,4.87238247 L7.13142672,5.19868217 L7.37952649,5.19868217 C7.40542646,5.19864884 7.43122644,5.19574884 7.45645975,5.19004884 C7.48059306,5.18481552 7.5035597,5.17531552 7.52432635,5.16194887 C7.54465967,5.14901555 7.56145965,5.13118223 7.57315964,5.11008225 C7.5858263,5.08614894 7.59205962,5.05934897 7.59132629,5.03228232 C7.59252629,5.00464902 7.5854263,4.97724904 7.57099298,4.95364906 C7.55772632,4.93311575 7.53942634,4.91628243 7.51782636,4.90478244 C7.49479305,4.89264912 7.4700264,4.88418246 7.44435976,4.8797158 C7.41795978,4.87498247 7.39122648,4.87251581 7.36439317,4.87238247 Z M0.561869479,2.46930137 L0.914122485,3.46771711 L1.27285549,2.46930137 L1.78069835,2.46930137 L1.78069835,3.99931662 L1.44357533,3.99931662 L1.44357533,2.82588437 L1.03729904,3.99931662 L0.782295941,3.99931662 L0.393309635,2.82588437 L0.388986306,3.99931662 L0.0540259499,3.99931662 L0.0518649519,2.46930137 L0.561869479,2.46930137 Z M2.968,2.46848 C3.16902039,2.46930137 3.36346355,2.54994129 3.50673008,2.69345116 C3.62134331,2.80825105 3.6956579,2.95575492 3.72062908,3.1139809 L3.72996424,3.23431733 C3.72996424,3.62093641 3.44264466,3.94047338 3.0698778,3.99104469 L2.968,3.99748 L2.86693869,3.99104469 C2.52805632,3.94507077 2.25980152,3.67681119 2.2138286,3.33794402 L2.20685683,3.23431733 C2.20651129,3.03155085 2.28682121,2.83695103 2.43008441,2.69345116 C2.54469231,2.57864327 2.69206177,2.50407214 2.8502468,2.478836 L2.968,2.46848 Z M4.29616268,2.46930137 L4.674329,3.4720171 L5.06332864,2.46930137 L5.4242283,2.46930137 L4.79319555,3.99801662 L4.52306247,3.99801662 L3.91149637,2.46930137 L4.29616268,2.46930137 Z M6.26269419,2.46930137 L6.26269419,3.99801662 L5.9255945,3.99801662 L5.9255945,2.46930137 L6.26269419,2.46930137 Z M7.92455931,2.46930137 L7.92455931,2.78048441 L7.2221933,2.78048441 L7.2221933,3.06575081 L7.88565935,3.06575081 L7.88565935,3.37695053 L7.2221933,3.37695053 L7.2221933,3.6881169 L7.96342594,3.6881169 L7.96342594,3.99801662 L6.88509361,3.99801662 L6.88722694,2.46930137 L7.92455931,2.46930137 Z M1.21018221,0.35148 L1.21018221,0.649703057 L0.773652616,0.649703057 L0.773652616,1.88149858 L0.436529595,1.88149858 L0.436529595,0.649703057 L0,0.649703057 L0,0.35148 L1.21018221,0.35148 Z M2.02057479,0.35148 L2.02057479,0.921996137 L2.67537085,0.921996137 L2.67537085,0.35148 L3.01249387,0.35148 L3.01249387,1.88149858 L2.67537085,1.88149858 L2.67537085,1.22021919 L2.02273479,1.22021919 L2.02273479,1.88149858 L1.68561177,1.88149858 L1.68561177,0.35148 L2.02057479,0.35148 Z M4.50576249,0.35148 L4.50576249,0.662669711 L3.8034298,0.662669711 L3.8034298,0.947926113 L4.46686252,0.947926113 L4.46686252,1.25911582 L3.8034298,1.25911582 L3.8034298,1.57030887 L4.54899578,1.57030887 L4.54899578,1.88149858 L3.46846345,1.88149858 L3.46846345,0.35148 L4.50576249,0.35148 Z M7.20189332,0.35148 C7.4046598,0.35148 7.59912628,0.432119925 7.74235948,0.575623125 C7.88562602,0.719129659 7.96595928,0.913716145 7.96559386,1.11648929 L7.95862254,1.22012045 C7.90805552,1.5928888 7.58854296,1.88020191 7.20189332,1.88020191 L5.77992797,1.88020191 C5.35812836,1.88020191 5.01622743,1.53827557 5.01622743,1.11648929 L5.02554643,0.996150949 C5.05050065,0.837924749 5.12481525,0.690428352 5.23942847,0.575623125 C5.38269501,0.432119925 5.57716149,0.35148 5.77992797,0.35148 Z" id="Combined-Shape" fill="url(#linearGradient-1)" fill-rule="nonzero"></path>
    </g>
</svg>

<svg viewBox="0 0 8 7" xmlns="http://www.w3.org/2000/svg"><defs><linearGradient x1="0%" y1="50%" x2="99.97%" y2="50%" id="a"><stop stop-color="#90CEA1" offset="0%"/><stop stop-color="#3CBEC9" offset="56%"/><stop stop-color="#00B3E5" offset="100%"/></linearGradient></defs><path d="M5.403 4.587c.117 0 .234.015.348.043a.801.801 0 0 1 .291.13c.084.064.15.146.196.24a.8.8 0 0 1 .072.356.731.731 0 0 1-.263.566.844.844 0 0 1-.274.145c-.106.034-.216.05-.327.05h-.547l-.003-1.53Zm1.966 0c.067 0 .134.004.2.013a.558.558 0 0 1 .18.056.34.34 0 0 1 .13.118.36.36 0 0 1 .05.201.32.32 0 0 1-.073.216.401.401 0 0 1-.191.122c.048.011.094.026.137.048a.337.337 0 0 1 .174.193.397.397 0 0 1 .024.138.369.369 0 0 1-.052.203.407.407 0 0 1-.134.13.578.578 0 0 1-.185.07.999.999 0 0 1-.204.022h-.627v-1.53Zm-3.711 0a.764.764 0 0 1 .763.765l-.006.104a.764.764 0 0 1-.757.66H.896a.764.764 0 0 1-.764-.764l.01-.12a.764.764 0 0 1 .754-.645Zm3.732.897h-.255l-.002.347h.303a.384.384 0 0 0 .079-.01.207.207 0 0 0 .072-.03.16.16 0 0 0 .073-.14.135.135 0 0 0-.026-.086.173.173 0 0 0-.069-.05.337.337 0 0 0-.086-.025.656.656 0 0 0-.089-.006Zm-1.955-.586h-.199l-.002.908h.18a.932.932 0 0 0 .216-.024.47.47 0 0 0 .172-.079.375.375 0 0 0 .116-.144.515.515 0 0 0 0-.415.39.39 0 0 0-.113-.138.505.505 0 0 0-.168-.08.754.754 0 0 0-.202-.028Zm1.93-.026h-.23l-.004.327h.249a.351.351 0 0 0 .076-.009.206.206 0 0 0 .068-.028.145.145 0 0 0 .067-.13.14.14 0 0 0-.02-.078.144.144 0 0 0-.053-.05.25.25 0 0 0-.074-.024.466.466 0 0 0-.08-.008ZM.561 2.47l.352.999.359-.999h.508V4h-.337V2.826l-.407 1.173H.782L.393 2.826.39 3.999H.054L.052 2.47h.51Zm2.406 0a.767.767 0 0 1 .753.645l.009.12a.764.764 0 0 1-.66.757l-.102.006-.101-.006a.764.764 0 0 1-.653-.653l-.007-.104a.764.764 0 0 1 .643-.755l.118-.01Zm1.328 0 .378 1.003.39-1.003h.36l-.63 1.529h-.27L3.91 2.469h.385Zm1.967 0v1.529h-.337V2.469h.337Zm1.662 0v.311h-.703v.286h.664v.311h-.664v.311h.741v.31H6.885l.002-1.529h1.038ZM1.21.351V.65H.774V1.88H.437V.65H0V.35h1.21Zm.81 0v.571h.655v-.57h.337v1.53h-.337V1.22h-.652v.661h-.337V.351h.335Zm2.486 0v.312h-.703v.285h.664v.311h-.664v.311h.746v.311h-1.08V.351h1.037Zm2.696 0a.764.764 0 0 1 .764.765l-.007.104a.764.764 0 0 1-.757.66H5.78a.764.764 0 0 1-.764-.764l.01-.12A.764.764 0 0 1 5.78.351Z" fill="url(#a)" fill-rule="nonzero"/></svg>
